X: 118
T: Along with My Love I'll Go
N:"Slow"
B:O'Neill's 118
Z:Transcribed by henrik.norbeck@mailbox.swipnet.se
M:3/4
L:1/8
K:F
(D>E)|F2 cA FA|G>E C2 DE|F2 cA G>E|^CE D2 DE|
F2 c>A FA|GE C2 DE|F2 cA GE|D4||
DE|F>E FG AF|(G>F) (GA) (BG)|A2 f2 (e>d)|d4 (3A=B^c|
d2 Ad cA|G>E C2 D>E|F2 cA GE|D4||


